!!!OTL: O KLOSTERLEBEN DU EINSAMKEIT
!!!ARE: Europa, Mitteleuropa, Deutschland, Frankfurt a.M.; Magdeburg;     Muensterland
!!!SCT: E0921
!!!YEM: Copyright 1995, estate of Helmut Schaffrath.
**kern
*ICvox
*Ivox
*M6/8
*k[b-]
*F:
{8c
=1
4f
8a
8a
8g
8f
=2
4g
8b-
8b-
8a}
{8g
=3
8f
8a
8cc
8cc
8b-
8a
=4
4.a
4g}
{8a
=5
8g
8g
8a
8b-
8a
8g
=6
4a
8b-
4cc}
{8a
=7
8g
8g
8a
8b-
8a
8g
=8
4a
8b-
4cc}
{8cc
=9
8cc
8a
8cc
8ff
8ee
8dd
=10
4cc
8dd
4cc}
{8b-
=11
8.a
16b-
8a
8g
8f
8g
=12
4.f
4r}
==
!!!AGN: Ehestands - Lied, Nonnen - Klage
!!!ONB: ESAC (Essen Associative Code) Database: ERK2
!!!AMT: compound duple
!!!AIN: vox
!!!EED: Helmut Schaffrath
!!!EEV: 1.0
*-
!!!title: @{OTL} [@{SCT}]
